public/build/img/addonsIcon.svg

<?xml version="1.0" encoding="UTF-8" standalone="no"?> <svg width="64" height="64" viewBox="0 0 64 64" fill="none" xmlns="http://www.w3.org/2000/svg">
<path d="M27.71 2.5H8C6.54212 2.50264 5.14471 3.08295 4.11383 4.11383C3.08295 5.14471 2.50264 6.54212 2.5 8V27.71C2.5 28.1078 2.65804 28.4894 2.93934 28.7707C3.22064 29.052 3.60218 29.21 4 29.21H23.71C25.1687 29.21 26.5676 28.6305 27.5991 27.5991C28.6305 26.5676 29.21 25.1687 29.21 23.71V4C29.21 3.60218 29.052 3.22064 28.7707 2.93934C28.4894 2.65804 28.1078 2.5 27.71 2.5ZM26.21 23.71C26.21 24.0383 26.1453 24.3634 26.0197 24.6667C25.8941 24.97 25.7099 25.2456 25.4778 25.4778C25.2456 25.7099 24.97 25.8941 24.6667 26.0197C24.3634 26.1453 24.0383 26.21 23.71 26.21H5.5V8C5.5 7.33696 5.76339 6.70107 6.23223 6.23223C6.70107 5.76339 7.33696 5.5 8 5.5H26.21V23.71Z" fill="black"/>
<path d="M23.71 34.79H4C3.60218 34.79 3.22064 34.9481 2.93934 35.2294C2.65804 35.5107 2.5 35.8922 2.5 36.29V56C2.50264 57.4579 3.08295 58.8553 4.11383 59.8862C5.14471 60.9171 6.54212 61.4974 8 61.5H27.71C28.1078 61.5 28.4894 61.342 28.7707 61.0607C29.052 60.7794 29.21 60.3979 29.21 60V40.29C29.21 38.8313 28.6305 37.4324 27.5991 36.401C26.5676 35.3695 25.1687 34.79 23.71 34.79V34.79ZM26.21 58.5H8C7.33696 58.5 6.70107 58.2366 6.23223 57.7678C5.76339 57.299 5.5 56.6631 5.5 56V37.79H23.71C24.0383 37.79 24.3634 37.8547 24.6667 37.9803C24.97 38.106 25.2456 38.2901 25.4778 38.5223C25.7099 38.7544 25.8941 39.03 26.0197 39.3333C26.1453 39.6366 26.21 39.9617 26.21 40.29V58.5Z" fill="black"/>
<path d="M60 34.79H40.29C38.8313 34.79 37.4324 35.3695 36.401 36.401C35.3695 37.4324 34.79 38.8313 34.79 40.29V60C34.79 60.3979 34.9481 60.7794 35.2294 61.0607C35.5107 61.342 35.8922 61.5 36.29 61.5H56C57.4579 61.4974 58.8553 60.9171 59.8862 59.8862C60.9171 58.8553 61.4974 57.4579 61.5 56V36.29C61.5 35.8922 61.342 35.5107 61.0607 35.2294C60.7794 34.9481 60.3979 34.79 60 34.79ZM58.5 56C58.5 56.6631 58.2366 57.299 57.7678 57.7678C57.299 58.2366 56.6631 58.5 56 58.5H37.79V40.29C37.79 39.627 38.0534 38.9911 38.5223 38.5223C38.9911 38.0534 39.627 37.79 40.29 37.79H58.5V56Z" fill="black"/>
<path d="M40.29 21.36H42.64V23.71C42.64 25.1687 43.2195 26.5676 44.2509 27.5991C45.2824 28.6305 46.6813 29.21 48.14 29.21C49.5987 29.21 50.9977 28.6305 52.0291 27.5991C53.0606 26.5676 53.64 25.1687 53.64 23.71V21.36H56C57.4587 21.36 58.8577 20.7805 59.8891 19.7491C60.9206 18.7176 61.5 17.3187 61.5 15.86C61.5 14.4013 60.9206 13.0024 59.8891 11.9709C58.8577 10.9395 57.4587 10.36 56 10.36H53.64V8C53.64 6.54131 53.0606 5.14236 52.0291 4.11091C50.9977 3.07946 49.5987 2.5 48.14 2.5C46.6813 2.5 45.2824 3.07946 44.2509 4.11091C43.2195 5.14236 42.64 6.54131 42.64 8V10.36H40.29C38.8313 10.36 37.4324 10.9395 36.401 11.9709C35.3695 13.0024 34.79 14.4013 34.79 15.86C34.79 17.3187 35.3695 18.7176 36.401 19.7491C37.4324 20.7805 38.8313 21.36 40.29 21.36V21.36ZM40.29 13.36H44.14C44.5379 13.36 44.9194 13.202 45.2007 12.9207C45.482 12.6394 45.64 12.2578 45.64 11.86V8C45.64 7.33696 45.9034 6.70107 46.3723 6.23223C46.8411 5.76339 47.477 5.5 48.14 5.5C48.8031 5.5 49.439 5.76339 49.9078 6.23223C50.3766 6.70107 50.64 7.33696 50.64 8V11.86C50.64 12.2578 50.7981 12.6394 51.0794 12.9207C51.3607 13.202 51.7422 13.36 52.14 13.36H56C56.6631 13.36 57.299 13.6234 57.7678 14.0922C58.2366 14.5611 58.5 15.197 58.5 15.86C58.5 16.523 58.2366 17.1589 57.7678 17.6278C57.299 18.0966 56.6631 18.36 56 18.36H52.14C51.7422 18.36 51.3607 18.518 51.0794 18.7993C50.7981 19.0806 50.64 19.4622 50.64 19.86V23.71C50.64 24.373 50.3766 25.0089 49.9078 25.4778C49.439 25.9466 48.8031 26.21 48.14 26.21C47.477 26.21 46.8411 25.9466 46.3723 25.4778C45.9034 25.0089 45.64 24.373 45.64 23.71V19.86C45.64 19.4622 45.482 19.0806 45.2007 18.7993C44.9194 18.518 44.5379 18.36 44.14 18.36H40.29C39.627 18.36 38.9911 18.0966 38.5223 17.6278C38.0534 17.1589 37.79 16.523 37.79 15.86C37.79 15.197 38.0534 14.5611 38.5223 14.0922C38.9911 13.6234 39.627 13.36 40.29 13.36V13.36Z" fill="black"/>
</svg>

<svg width="64" height="64" fill="none" xmlns="http://www.w3.org/2000/svg"><path d="M27.71 2.5H8A5.51 5.51 0 002.5 8v19.71a1.5 1.5 0 001.5 1.5h19.71a5.5 5.5 0 005.5-5.5V4a1.5 1.5 0 00-1.5-1.5zm-1.5 21.21a2.5 2.5 0 01-2.5 2.5H5.5V8A2.5 2.5 0 018 5.5h18.21v18.21zm-2.5 11.08H4a1.5 1.5 0 00-1.5 1.5V56A5.51 5.51 0 008 61.5h19.71a1.5 1.5 0 001.5-1.5V40.29a5.5 5.5 0 00-5.5-5.5zm2.5 23.71H8A2.5 2.5 0 015.5 56V37.79h18.21a2.5 2.5 0 012.5 2.5V58.5zM60 34.79H40.29a5.5 5.5 0 00-5.5 5.5V60a1.5 1.5 0 001.5 1.5H56a5.51 5.51 0 005.5-5.5V36.29a1.5 1.5 0 00-1.5-1.5zM58.5 56a2.5 2.5 0 01-2.5 2.5H37.79V40.29a2.5 2.5 0 012.5-2.5H58.5V56zM40.29 21.36h2.35v2.35a5.5 5.5 0 0011 0v-2.35H56a5.5 5.5 0 000-11h-2.36V8a5.5 5.5 0 10-11 0v2.36h-2.35a5.5 5.5 0 000 11zm0-8h3.85a1.5 1.5 0 001.5-1.5V8a2.5 2.5 0 115 0v3.86a1.5 1.5 0 001.5 1.5H56a2.5 2.5 0 110 5h-3.86a1.5 1.5 0 00-1.5 1.5v3.85a2.5 2.5 0 01-5 0v-3.85a1.5 1.5 0 00-1.5-1.5h-3.85a2.5 2.5 0 010-5z" fill="#000"/></svg>
